public/library/zkfair-text-dark.svg

<svg width="1308" height="256" viewBox="0 0 1308 256" fill="none" xmlns="http://www.w3.org/2000/svg">
<path d="M268.907 147.501C268.907 159.864 268.907 172.228 268.907 184.591C266.997 186.225 264.624 186.122 262.317 186.123C202.876 186.153 143.434 186.166 83.9927 186.114C76.0162 186.108 74.5381 184.635 74.5246 176.781C74.4652 144.614 74.4679 112.448 74.5232 80.2807C74.5367 72.2467 76 70.8489 84.395 70.8399C129.597 70.7908 174.798 70.8231 220.001 70.8166C229.512 70.8153 229.52 70.8089 229.519 61.651C229.517 55.6297 229.467 49.607 229.528 43.587C229.562 40.1946 228.107 38.5979 224.515 38.7439C222.699 38.8175 220.873 38.7335 219.052 38.7335C149.511 38.7323 79.9687 38.7361 10.4279 38.7297C0.112064 38.7284 -0.00537647 38.7129 0.145811 28.9969C0.295648 19.3623 -0.512934 9.71214 0.593973 0.0917388C88.7065 0.0917388 176.819 0.116284 264.932 1.74217e-05C268.335 -0.00385813 269.019 0.636899 269.006 3.89624C268.848 39.0836 268.907 74.2723 268.907 109.46C266.348 111.5 263.258 110.972 260.332 110.975C215.825 111.009 171.32 110.996 126.812 111C116.486 111.001 116.48 111.007 116.483 120.881C116.484 127.373 116.394 133.865 116.52 140.356C116.613 145.169 117.258 145.731 122.346 145.923C125.487 146.042 128.632 145.962 131.776 145.962C174.628 145.965 217.48 145.952 260.332 145.987C263.258 145.988 266.348 145.46 268.907 147.501Z" fill="#E13022"/>
<path d="M268.903 255.917C181.29 255.917 93.6781 255.891 6.06641 256C2.00325 256.005 0.535922 255.478 0.550771 251.015C0.749204 193.004 0.722206 134.994 0.589917 76.9831C0.581818 73.2677 1.53484 72.2446 5.42116 72.3634C14.8515 72.6515 24.3034 72.6321 33.7364 72.3789C38.0439 72.264 39.3654 73.5274 39.3519 77.7556C39.198 124.037 39.2858 170.319 39.1859 216.601C39.1791 219.687 39.6057 220.912 43.3341 220.907C118.029 220.788 192.723 220.816 267.418 220.812C267.913 220.812 268.409 220.76 268.904 220.731C268.903 232.459 268.903 244.189 268.903 255.917Z" fill="#E13022"/>
<path d="M542.564 179.628C542.564 185.41 542.564 198.19 542.564 210.969C540.686 212.658 538.352 212.551 536.084 212.552C477.634 212.583 426.147 212.597 367.697 212.543C359.854 212.536 358.4 211.014 358.387 202.896C358.328 169.647 358.331 150.393 358.386 117.144C358.399 108.84 359.838 107.395 368.093 107.386C412.541 107.335 456.989 107.368 501.437 107.362C510.79 107.36 510.798 107.354 510.797 97.8876C510.795 91.6638 510.746 85.4386 510.806 79.2162C510.839 75.7097 509.408 74.0592 505.876 74.2101C504.091 74.2862 502.295 74.1994 500.504 74.1994C432.123 74.1981 436.746 74.2021 368.365 74.1954C358.221 74.1941 358.105 74.1781 358.254 64.1353C358.401 54.1754 357.608 51.1975 358.695 41.2535C445.338 41.2535 452.012 41.2789 538.655 41.1587C542.001 41.1547 542.674 41.817 542.661 45.186C542.506 81.5567 542.564 103.935 542.564 140.306C540.047 142.415 537.009 141.87 534.133 141.872C490.367 141.907 446.604 141.894 402.839 141.898C392.684 141.899 392.679 141.906 392.682 152.111C392.683 158.821 392.594 165.533 392.717 172.241C392.809 177.216 393.444 177.797 398.446 177.996C401.535 178.119 404.628 178.036 407.72 178.036C449.857 178.039 491.995 178.026 534.133 178.062C537.009 178.064 540.049 177.518 542.564 179.628Z" fill="white"/>
<path d="M1190.74 214.602V106.777C1190.74 100.597 1192.36 94.9867 1195.59 89.9451C1198.81 84.9036 1203.06 80.8378 1208.33 77.7478C1213.77 74.6578 1219.63 73.1128 1225.92 73.1128H1308V105.07H1227.19C1226.34 105.07 1225.58 105.395 1224.9 106.046C1224.39 106.534 1224.14 107.184 1224.14 107.997V214.602H1190.74Z" fill="white"/>
<path d="M1129 214.599V73.1097H1162.39V214.599H1129ZM1129 58.9608V26.7598H1162.39V58.9608H1129Z" fill="white"/>
<path d="M987.191 214.602C980.734 214.602 974.786 213.057 969.348 209.967C964.08 206.877 959.831 202.811 956.602 197.77C953.544 192.728 952.014 187.117 952.014 180.937V127.757H1068.76V107.997C1068.76 107.184 1068.42 106.534 1067.74 106.046C1067.23 105.395 1066.55 105.07 1065.7 105.07H952.014V73.1128H1066.98C1073.43 73.1128 1079.3 74.6578 1084.57 77.7478C1090 80.8378 1094.25 84.9036 1097.31 89.9451C1100.54 94.9867 1102.15 100.597 1102.15 106.777V214.602H987.191ZM988.466 182.645H1068.76V156.543H985.407V179.718C985.407 180.531 985.662 181.263 986.172 181.913C986.851 182.401 987.616 182.645 988.466 182.645Z" fill="white"/>
<path d="M769.336 214.601V38.959H938.339V71.4039H803.238V110.435H911.829V143.124H803.238V214.601H769.336Z" fill="white"/>
<path d="M565.952 214.601V38.959H599.854V110.435H642.933L705.64 38.959H742.347V48.229L673.522 126.78L742.602 205.331V214.601H705.64L642.933 143.124H599.854V214.601H565.952Z" fill="white"/>
</svg>

<svg xmlns="http://www.w3.org/2000/svg" width="1308" height="256" fill="none" viewBox="0 0 1308 256"><path fill="#e13022" d="M268.907 147.501v37.09c-1.91 1.634-4.283 1.531-6.59 1.532-59.441.03-118.883.043-178.324-.009-7.977-.006-9.455-1.479-9.468-9.333-.06-32.167-.057-64.333-.002-96.5.014-8.034 1.477-9.432 9.872-9.441 45.202-.05 90.403-.017 135.606-.023 9.511-.002 9.519-.008 9.518-9.166-.002-6.021-.052-12.044.009-18.064.034-3.392-1.421-4.99-5.013-4.843-1.816.074-3.642-.01-5.463-.01-69.541-.002-139.083.002-208.624-.004C.112 38.728-.005 38.713.146 28.997.296 19.362-.513 9.712.594.092 88.707.092 176.819.116 264.932 0c3.403-.004 4.087.637 4.074 3.896-.158 35.188-.099 70.376-.099 105.564-2.559 2.04-5.649 1.512-8.575 1.515-44.507.034-89.012.021-133.52.025-10.326.001-10.332.007-10.329 9.881.001 6.492-.089 12.984.037 19.475.093 4.813.738 5.375 5.826 5.567 3.141.119 6.286.039 9.43.039 42.852.003 85.704-.01 128.556.025 2.926.001 6.016-.527 8.575 1.514"/><path fill="#e13022" d="M268.903 255.917c-87.613 0-175.225-.026-262.837.083-4.063.005-5.53-.522-5.515-4.985.198-58.011.171-116.021.039-174.032-.008-3.715.945-4.738 4.831-4.62 9.43.288 18.882.27 28.315.016 4.308-.115 5.63 1.148 5.616 5.377-.154 46.281-.066 92.563-.166 138.845-.007 3.086.42 4.311 4.148 4.306 74.695-.119 149.389-.091 224.084-.095.495 0 .991-.052 1.486-.081z"/><path fill="#fff" d="M542.564 179.628v31.341c-1.878 1.689-4.212 1.582-6.48 1.583-58.45.031-109.937.045-168.387-.009-7.843-.007-9.297-1.529-9.31-9.647-.059-33.249-.056-52.503-.001-85.752.013-8.304 1.452-9.749 9.707-9.758 44.448-.051 88.896-.018 133.344-.024 9.353-.002 9.361-.008 9.36-9.474-.002-6.224-.051-12.45.009-18.672.033-3.506-1.398-5.157-4.93-5.006-1.785.076-3.581-.01-5.372-.01-68.381-.002-63.758.002-132.139-.005-10.144 0-10.26-.017-10.111-10.06.147-9.96-.646-12.938.441-22.882 86.643 0 93.317.026 179.96-.094 3.346-.004 4.019.658 4.006 4.027-.155 36.37-.097 58.749-.097 95.12-2.517 2.109-5.555 1.564-8.431 1.566-43.766.035-87.529.022-131.294.026-10.155.001-10.16.008-10.157 10.213.001 6.71-.088 13.422.035 20.13.092 4.975.727 5.556 5.729 5.755 3.089.123 6.182.04 9.274.04 42.137.003 84.275-.01 126.413.026 2.876.002 5.916-.544 8.431 1.566M1190.74 214.602V106.777c0-6.18 1.62-11.79 4.85-16.832 3.22-5.041 7.47-9.107 12.74-12.197 5.44-3.09 11.3-4.635 17.59-4.635H1308v31.957h-80.81c-.85 0-1.61.325-2.29.976-.51.488-.76 1.138-.76 1.951v106.605zM1129 214.599V73.109h33.39V214.6zm0-155.638V26.76h33.39v32.2zM987.191 214.602q-9.686 0-17.843-4.635-7.902-4.635-12.746-12.197-4.587-7.563-4.588-16.833v-53.18h116.746v-19.76q0-1.22-1.02-1.951-.765-.976-2.04-.976H952.014V73.113h114.966c6.45 0 12.32 1.545 17.59 4.635 5.43 3.09 9.68 7.156 12.74 12.197 3.23 5.042 4.84 10.652 4.84 16.832v107.825zm1.275-31.957h80.294v-26.102h-83.353v23.175q0 1.22.765 2.195a3.84 3.84 0 0 0 2.294.732M769.336 214.601V38.959h169.003v32.445H803.238v39.031h108.591v32.689H803.238v71.477zM565.952 214.601V38.959h33.902v71.476h43.079l62.707-71.476h36.707v9.27l-68.825 78.551 69.08 78.551v9.27H705.64l-62.707-71.477h-43.079v71.477z"/></svg>
